X: 1
T:Billy Boy
M:6/8
C:
S:Ruth Temple and Paul Turner
N:as played for Seabright
A:Bledington
O:English
R:Jig
%P:A/2.(AB)$^4$(A)
P:A.(AB)4(A)
%:
%:
L:1/8
K:G
I:speed 300
P:A
|:D|GBd    BGB|cAG  FAD|BAG  EFG|DEF G2:|\
P:B
|:D|Bcd    ecB|ABc  dBA|Bcd  ecB|ABc dd[fdD]|\
[Gg]Bd BGB|cAG  FAD|BAG  EFG|DEF G2:|
